X:431
T:Lady Madalina Gordon
R:Reel
C:William Marshall
B:The Athole Collection
M:C|
L:1/8
K:F
CFAF CGBG|CFAF EF/G/ EC|CFAF CGBG|cABG F/F/F ~F2:|
fg/a/ fc dBcA|BGAF EF/G/ EC|FcAc FdBd|cfeg f/f/f ~fg|
afge fcdB|cABG EF/G/ EC|CFAF CGBG|cABG F/F/F ~F2||

